!!!OTL: "Alter Leittanz" MAN PFLEGT ZU SAGEN
!!!ARE: Europa, Mitteleuropa, Deutschland, Niederrhein
!!!SCT: Z1271
!!!YEM: Copyright 1995, estate of Helmut Schaffrath.
**kern
*ICvox
*Ivox
*M3/4
*k[]
*C:
{4g
=1
2cc
4ee
=2
8dd
8b
4g}
{4e
=3
4.f
8d
8e
8g
=4
2c}
{8cc
8ee
=5
4.dd
8b
8cc
8a
=6
8b
8cc
4dd}
{8dd
8cc
=7
4b
4b
4a
=8
2g}
{4g
=9
2cc
4ee
=10
8dd
8b
4g}
{4e
=11
4f
8d
8f
8e
8g
=12
2c}
{8cc
8ee
=13
4.dd
8b
8cc
8a
=14
8b
8cc
4dd}
{8dd
8cc
=15
2b
4a
=16
2g}
{4g
=17
4cc
4g
4e
=18
8f
8g
4a}
{4e
=19
4f
4d
4g
=20
2c}
{4g
=21
4a
4a
4gg
=22
8ee
8dd
4cc}
{4b
=23
4cc
4e
4d
=24
2c}
==
!!!AGN: Natur und Welt, Liebe
!!!ONB: ESAC (Essen Associative Code) Database: ZUCCAL
!!!AMT: simple triple
!!!AIN: vox
!!!EED: Helmut Schaffrath
!!!EEV: 1.0
*-
